X: 26
T:Sean Hernon's
M:6/8
L:1/8
Q:180
S:John Carty
K:DMinor
dcA GEA | DED D2 E | AGE C2 D | EGG cde |
dcA GEA | DED D2 c | dea gec |d3 d3 :|
|| Add deg | age dcA | c3 Acc | Gcc Acc |
cAG Add | deg age | dcA cea | gec d3  |
Add deg | age dcA | c3 Acc | Gc=B cde |
fgf efe | ded cAF | cea gec | d3 d3 ||
